X:25
T:Hal an tow - jones bardic museum
C:From Jones Bardic Museum 1802, II. p. 97.
%%VWML:SBG-1-1-139-0
F:http://www.vwml.org/record/SBG/1/1/139
Z:Original Sibleius Transcription by Martin and Shan Graebe
L:1/8
M:4/4
I:linebreak $
K:Eb
E2 (E>F) E2 GA | B2 (B>c) B2 (cd) | e2 B2 (Bc) (BA) | G4 E4 | E2 E3/2 F/ E2 (([EG][FA])) | 
[GB] [GB] ([GB]>[Ac]) [GB]2 [Ac]d |$ [Ge]2 B2 Bc BA | G4 E2 || B2 | c2 c2 c2 (BA) | 
(GA) B c B2 (cd) | e2 B2 (Bc) (BA) | (G4 E4) |$ [Ec]2 [Ec]2 [Ec]2 (BA) | GA B c !fermata!B2 cd | 
e2 .B2 B3 A | G2 E2 !fermata!E2 :| E2 (E>F) E2 [EG][FA] | B2 B>c B2 (cd) |$ e2 B2 Bc BA | 
G2 E2 E3 E | (E2 E)F E2 G A | (B2 B)c B2 cd |$ e2 B2 Bc BA | G4 E3 B | c2 c2 c2 BA | 
GABc B2"^&c."  |] 

